X:39
T:Give Us a Drink of Water
S:Kilkenny Tavern sessions, London
B:O'Neill's 1850, No. 1131; DMI, No. 420;
B:O'Neill's Irish Music, No. 222.
N:Another tune from the playing of Willie Clancy.
N:First publication was by O'Neill.
Z:ATB
R:slip jig
M:9/8
L:1/8
K:G
D|GBd gdc BAG|BdB cAA A2D|GBd gdc BAG|BcA AGF G2:|]
d|g2g efg fed|g2g efg afd|g2g bag fed|efg afd g2d|
g2g efg fed|g2g efg a2g|bag agf ged|efg afd g2|]
